X:1
T:Go Down Moses
C:Traditional
Z:Copuright © www.realbook.site
L:1/8
M:4/4
I:linebreak $
K:Gmin
V:1 treble nm=" " snm=" "
V:1
 D ||"Gm" B2 B2"D7" A2 A2 |"Gm" B B3"Cm" G4 |"Gm/D" D2 D2"D7" ^F F2 G- |"Gm" G2 z2 z2 z D |$ %5
"Gm" B2 B2"D7" A2 A2 |"Gm" B B3"Cm" G4 |"Gm/D" D2 D2"D7" ^F F2 G- |"Gm" G2 z2 z4 ||$"Gm" G G3 z4 | %10
"Cm" c c3 z4 |"Gm" d4"D7" d3 c |"Bb" d2 d2"Eb" cB G2 |$"Gm" B G3 z4 |"Cm" B G3 z4 | %15
"Gm/D" D2 D2"D7" ^F F2 G- |"Gm" G2 z2 z4 |] %17

